src/render/svg/add-cate.svg

<svg class="icon" viewBox="0 0 1024 1024" version="1.1" xmlns="http://www.w3.org/2000/svg"
>
  <path
    d="M597.338667 466.780299h401.061653a29.012971 29.012971 0 0 0 25.59968-29.866294V29.879093a29.012971 29.012971 0 0 0-29.866293-29.866293H597.338667a29.012971 29.012971 0 0 0-29.012971 29.866293v407.034912a29.012971 29.012971 0 0 0 29.012971 29.866294zM622.085024 58.892064h341.329067v348.155648h-341.329067zM426.674133 0.0128H29.025771A29.012971 29.012971 0 0 0 0.0128 29.879093v407.034912a29.012971 29.012971 0 0 0 29.012971 29.866294H426.674133a29.012971 29.012971 0 0 0 29.012971-29.866294V29.879093A29.012971 29.012971 0 0 0 426.674133 0.0128z m-25.59968 407.034912h-341.329066V58.892064h341.329066zM426.674133 557.232501H29.025771a29.012971 29.012971 0 0 0-29.012971 29.866294v407.034912a29.012971 29.012971 0 0 0 29.012971 29.866293H426.674133a29.012971 29.012971 0 0 0 29.012971-29.866293V587.098795A29.012971 29.012971 0 0 0 426.674133 557.232501z m-25.59968 407.888235h-341.329066V616.965088h341.329066zM994.987029 758.616651h-170.664533v-170.664534a29.012971 29.012971 0 1 0-58.025941 0v170.664534h-170.664534a29.866293 29.866293 0 0 0 0 58.879264h170.664534v170.664533a29.012971 29.012971 0 1 0 58.025941 0v-170.664533h170.664533a29.866293 29.866293 0 0 0 0-58.879264z"
    ></path>
</svg>

<svg xmlns="http://www.w3.org/2000/svg" class="icon" viewBox="0 0 1024 1024">
    <path d="M597.33867 466.7803h401.06165A29.01297 29.01297 0 0 0 1024 436.914V29.8791A29.01297 29.01297 0 0 0 994.1337.0128H597.33868a29.01297 29.01297 0 0 0-29.01297 29.8663V436.914a29.01297 29.01297 0 0 0 29.01297 29.8663m24.74635-407.88824H963.4141v348.15565H622.08502zM426.67413.0128H29.02577A29.01297 29.01297 0 0 0 .0128 29.8791V436.914a29.01297 29.01297 0 0 0 29.01297 29.8663h397.64836a29.01297 29.01297 0 0 0 29.01297-29.8663V29.8791A29.01297 29.01297 0 0 0 426.67413.0128m-25.59968 407.03491H59.7454V58.89206h341.32906zm25.59968 150.1848H29.02577A29.01297 29.01297 0 0 0 .0128 587.09878v407.03492A29.01297 29.01297 0 0 0 29.02577 1024h397.64836a29.01297 29.01297 0 0 0 29.01297-29.8663V587.0988a29.01297 29.01297 0 0 0-29.01297-29.8663m-25.59968 407.88823H59.7454V616.96509h341.32906zm593.91258-206.50409H824.3225V587.95212a29.01297 29.01297 0 1 0-58.02595 0v170.66453H595.63202a29.8663 29.8663 0 0 0 0 58.87927h170.66453v170.66453a29.01297 29.01297 0 1 0 58.02595 0V817.49592h170.66453a29.8663 29.8663 0 0 0 0-58.87927"/>
</svg>
